icons/bug.svg

<svg width="16" height="15" xmlns="http://www.w3.org/2000/svg" version="1.1"><path fill="#000000" d="M6,1h1v1h2v-1h1v1h-1v2h2v1h1v-1h3v1h-3v2h2v1h1v2h-1v-2h-2v1h-1v1h1v4h-1v-4h-1v1h-4v-1h-1v4h-1v-4h1v-1h-1v-1h-2v-1h-1v-2h1v2h2v-2h-1v-3h1v3h1v-1h2v-2h-1v-1M6,5h-1v4h1v1h4v-1h1v-4z"/></svg>

<svg width="16" height="15" xmlns="http://www.w3.org/2000/svg"><path d="M6 1h1v1h2V1h1v1H9v2h2v1h1V4h3v1h-3v2h2v1h1v2h-1V8h-2v1h-1v1h1v4h-1v-4h-1v1H6v-1H5v4H4v-4h1V9H4V8H2V7H1V5h1v2h2V5H3V2h1v3h1V4h2V2H6V1m0 4H5v4h1v1h4V9h1V5z"/></svg>
